public/img/location.svg

<svg fill="none" height="20" viewBox="0 0 19 20" width="19" xmlns="http://www.w3.org/2000/svg"><path d="m9.43192 13.7176c.09254-.0002.18389-.0209.26751-.0606.08363-.0396.15746-.0972.21623-.1687.17274-.2073 4.22804-5.161 4.22804-8.77651 0-.61876-.1219-1.23146-.3587-1.80312-.2367-.57167-.5838-1.09109-1.0213-1.52862-.4376-.437529-.957-.784597-1.5287-1.021386-.5716-.23679-1.1843-.358664-1.80308-.358664-.61876 0-1.23147.121874-1.80313.358664-.57166.236789-1.09108.583857-1.52861 1.021386-.43753.43753-.7846.95695-1.02139 1.52862-.23679.57166-.35866 1.18436-.35866 1.80312 0 3.61551 4.05528 8.56921 4.22804 8.77651.05877.0715.1326.1291.21623.1687.08362.0397.17497.0604.26752.0606zm0-12.56478c.92978.01488 1.81568.39793 2.46348 1.06511.6477.66719 1.0044 1.56404.9918 2.49386 0 2.48468-2.403 5.96831-3.45528 7.35351-1.0523-1.401-3.45532-4.86883-3.45532-7.35351-.01259-.92982.3441-1.82667.99186-2.49386.64775-.66718 1.53367-1.05023 2.46346-1.06511zm2.19888 3.45531c0-.43489-.129-.86001-.3706-1.22161-.2416-.36159-.585-.64342-.9868-.80985-.40181-.16642-.84392-.20997-1.27046-.12513-.42653.08485-.81832.29427-1.12584.60178-.30751.30751-.51693.69931-.60177 1.12584s-.0413.86864.12513 1.27043c.16642.40178.44825.74519.80985.9868s.78672.37057 1.22161.37057c.58318 0 1.14248-.23166 1.55478-.64402.4124-.41236.6441-.97164.6441-1.55481zm-3.14124 0c0-.18638.05527-.36858.15881-.52355.10355-.15497.25073-.27575.42292-.34708.1722-.07132.36167-.08998.54447-.05362s.35071.12611.48254.2579c.1318.13179.2215.29971.2579.4825.0363.1828.0177.37228-.0537.54447-.0713.1722-.1921.31937-.34704.42292-.15497.10355-.33716.15882-.52354.15882-.24993 0-.48962-.09929-.66635-.27601-.17673-.17673-.27601-.41642-.27601-.66635zm10.05184 14.97097c-.1183.1328-.2635.2391-.426.3116-.1624.0726-.3385.1098-.5164.1093h-16.33418c-.1779.0012-.354022-.0355-.516713-.1074-.16269-.072-.30824-.1777-.42702-.3102-.118781-.1324-.208083-.2886-.2619972-.4581-.05391473-.1695-.071213-.3486-.05075037-.5253l1.12140057-9.7377c.03561-.3076.18355-.59122.41544-.79645.23189-.20522.53139-.31758.84104-.31553h1.70567c.15392.42406.33297.84498.52458 1.25648h-2.19884l-1.15281 9.7377h16.33418l-1.1214-9.7377h-2.2208c.1916-.4115.3706-.83242.5246-1.25648h1.6899c.3097-.00205.6092.11031.8411.31553.2319.20523.3798.48885.4154.79645l1.1214 9.7377c.0206.1758.0039.354-.0492.5229-.053.1689-.1412.3247-.2586.4572z" fill="#5a6f84"/></svg>

<svg width="19" height="20" viewBox="0 0 19 20" fill="none" xmlns="http://www.w3.org/2000/svg">
<path d="M9.43192 13.7176C9.52446 13.7174 9.61581 13.6967 9.69943 13.657C9.78306 13.6174 9.85689 13.5598 9.91566 13.4883C10.0884 13.281 14.1437 8.3273 14.1437 4.71179C14.1437 4.09303 14.0218 3.48033 13.785 2.90867C13.5483 2.337 13.2012 1.81758 12.7637 1.38005C12.3261 0.942521 11.8067 0.595453 11.235 0.358664C10.6634 0.121874 10.0507 0 9.43192 0C8.81316 0 8.20045 0.121874 7.62879 0.358664C7.05713 0.595453 6.53771 0.942521 6.10018 1.38005C5.66265 1.81758 5.31558 2.337 5.07879 2.90867C4.842 3.48033 4.72013 4.09303 4.72013 4.71179C4.72013 8.3273 8.77541 13.281 8.94817 13.4883C9.00694 13.5598 9.08077 13.6174 9.1644 13.657C9.24802 13.6967 9.33937 13.7174 9.43192 13.7176ZM9.43192 1.15282C10.3617 1.1677 11.2476 1.55075 11.8954 2.21793C12.5431 2.88512 12.8998 3.78197 12.8872 4.71179C12.8872 7.19647 10.4842 10.6801 9.43192 12.0653C8.37962 10.6643 5.9766 7.19647 5.9766 4.71179C5.96401 3.78197 6.3207 2.88512 6.96846 2.21793C7.61621 1.55075 8.50213 1.1677 9.43192 1.15282V1.15282ZM11.6308 4.60813C11.6308 4.17324 11.5018 3.74812 11.2602 3.38652C11.0186 3.02493 10.6752 2.7431 10.2734 2.57667C9.87159 2.41025 9.42948 2.3667 9.00294 2.45154C8.57641 2.53639 8.18462 2.74581 7.8771 3.05332C7.56959 3.36083 7.36017 3.75263 7.27533 4.17916C7.19049 4.60569 7.23403 5.0478 7.40046 5.44959C7.56688 5.85137 7.84871 6.19478 8.21031 6.43639C8.57191 6.678 8.99703 6.80696 9.43192 6.80696C10.0151 6.80696 10.5744 6.5753 10.9867 6.16294C11.3991 5.75058 11.6308 5.1913 11.6308 4.60813V4.60813ZM8.48956 4.60813C8.48956 4.42175 8.54483 4.23955 8.64837 4.08458C8.75192 3.92961 8.8991 3.80883 9.07129 3.7375C9.24349 3.66618 9.43296 3.64752 9.61576 3.68388C9.79856 3.72024 9.96647 3.80999 10.0983 3.94178C10.2301 4.07357 10.3198 4.24149 10.3562 4.42428C10.3925 4.60708 10.3739 4.79656 10.3025 4.96875C10.2312 5.14095 10.1104 5.28812 9.95546 5.39167C9.80049 5.49522 9.6183 5.55049 9.43192 5.55049C9.18199 5.55049 8.9423 5.4512 8.76557 5.27448C8.58884 5.09775 8.48956 4.85806 8.48956 4.60813V4.60813ZM18.5414 19.5791C18.4231 19.7119 18.2779 19.8182 18.1154 19.8907C17.953 19.9633 17.7769 20.0005 17.599 20H1.26482C1.08692 20.0012 0.910798 19.9645 0.748107 19.8926C0.585417 19.8206 0.439867 19.7149 0.321087 19.5824C0.202306 19.45 0.113004 19.2938 0.0590898 19.1243C0.00517507 18.9548 -0.0121232 18.7757 0.00833943 18.599L1.12974 8.8613C1.16535 8.5537 1.31329 8.27008 1.54518 8.06485C1.77707 7.85963 2.07657 7.74727 2.38622 7.74932H4.09189C4.24581 8.17338 4.42486 8.5943 4.61647 9.0058H2.41763L1.26482 18.7435H17.599L16.4776 9.0058H14.2568C14.4484 8.5943 14.6274 8.17338 14.7814 7.74932H16.4713C16.781 7.74727 17.0805 7.85963 17.3124 8.06485C17.5443 8.27008 17.6922 8.5537 17.7278 8.8613L18.8492 18.599C18.8698 18.7748 18.8531 18.953 18.8 19.1219C18.747 19.2908 18.6588 19.4466 18.5414 19.5791Z" fill="#5A6F84"/>
</svg>
